X:12596
T:Paddy Fahy's
R:reel
S:
H:
N:
D:Jacqueline & Tommy McCarthy
Z:Adrian Scahill
M:4/4
L:1/8
K:G
BGG2 BGcA|BGBd cAFA|BGG2 Bcde|fgaf gedc|\
BGG2 BGcA|BGBd cAFA|BGG2 Bcde|1 fgaf gedc:|2 fgaf g3a||\
(3bc'b af dgge|fdcA FGAG|bgaf gfd^c|dgfa g3a|\
bgaf dgge|fdcA FGAc|BGG2 Bcde|fgaf g3a:||
